X: 34537
T: Ríl Phats Laighin
R: reel
M: 4/4
K: Dmajor
A2|:d2 DD FAAA|dAAf edBc|d2 DD FAAF|GFEF GABc|
d2 DD FAAA|dAAf edBe|fdec dc B2|AFEF GABc:|
|:d2 fd ceec|d2 fd ecBc|d2fd ce e2|EDEF GABc|
d2 fd ceec|d2 fd edBe|fdec dc B2|AFEF GABc:|

